EdiMM/images/4drawlimetrada.svg

<svg xmlns="http://www.w3.org/2000/svg" width="24" height="24" viewBox="0 0 24 24"><path fill="none" d="M0 0h24v24H0V0z"/><path d="M20 2H4c-1.1 0-2 .9-2 2v16c0 1.1.9 2 2 2h16c1.1 0 2-.9 2-2V4c0-1.1-.9-2-2-2zM8 20H5c-.55 0-1-.45-1-1v-3h4v4zm0-6H4v-4h4v4zm0-6H4V5c0-.55.45-1 1-1h3v4zm6 12h-4v-4h4v4zm0-6h-4v-4h4v4zm0-6h-4V4h4v4zm5 12h-3v-4h4v3c0 .55-.45 1-1 1zm1-6h-4v-4h4v4zm0-6h-4V4h3c.55 0 1 .45 1 1v3z"/></svg>

<svg width="24" height="24" viewBox="0 0 24 24" fill="none" xmlns="http://www.w3.org/2000/svg">
<path d="M20 2H4C2.9 2 2 2.9 2 4V20C2 21.1 2.9 22 4 22H20C21.1 22 22 21.1 22 20V4C22 2.9 21.1 2 20 2ZM8 20H5C4.45 20 4 19.55 4 19V16H8V20ZM8 14H4V10H8V14ZM8 8H4V5C4 4.45 4.45 4 5 4H8V8ZM14 20H10V16H14V20ZM14 14H10V10H14V14ZM14 8H10V4H14V8ZM19 20H16V16H20V19C20 19.55 19.55 20 19 20ZM20 14H16V10H20V14ZM20 8H16V4H19C19.55 4 20 4.45 20 5V8Z" fill="white"/>
</svg>
